icons/qr-scan-2-fill.svg

<svg xmlns="http://www.w3.org/2000/svg" viewBox="0 0 24 24">
    <g>
        <path fill="none" d="M0 0h24v24H0z"/>
        <path d="M15 3h6v6h-6V3zM9 3v6H3V3h6zm6 18v-6h6v6h-6zm-6 0H3v-6h6v6zM3 11h18v2H3v-2z"/>
    </g>
</svg>

<svg viewBox="0 0 24 24" fill="currentColor" xmlns="http://www.w3.org/2000/svg"><path d="M15 3H21V9H15V3ZM9 3V9H3V3H9ZM15 21V15H21V21H15ZM9 21H3V15H9V21ZM3 11H21V13H3V11Z"/></svg>
